usr/share/icons/biglinux-icons-material/32/actions/media-playlist-repeat.svg

<svg xmlns="http://www.w3.org/2000/svg" viewBox="0 0 32 32">
  <defs
     id="defs3051">
    <style
       type="text/css"
       id="current-color-scheme">
      .ColorScheme-Text {
        color:#363636;
      }
      </style>
  </defs>
  <path
     style="fill:currentColor;fill-opacity:1;stroke:none"
     d="m 23.499999,7.0000003 v 3.0000007 0 H 8.5000006 C 6.0070006,10.000001 4,12.007 4,14.500001 V 16 H 5 V 14.500001 C 5,12.718151 6.6941822,11 8.5000006,11 H 23.5 l -1e-6,3 L 28,10.5 Z M 27,16 v 1.500001 C 27,19.287 25.286999,21 23.499999,21 H 8.5000006 V 18 L 4,21.5 8.5000006,25 v -3 0 H 23.499999 C 25.993,22 28,19.993 28,17.500001 V 16 Z"
     class="ColorScheme-Text"
     />
</svg>

<svg xmlns="http://www.w3.org/2000/svg" viewBox="0 0 32 32"><path d="M23.5 7v3h-15A4.49 4.49 0 0 0 4 14.5V16h1v-1.5C5 12.718 6.694 11 8.5 11h15v3l4.5-3.5Zm3.5 9v1.5c0 1.787-1.713 3.5-3.5 3.5h-15v-3L4 21.5 8.5 25v-3h15a4.49 4.49 0 0 0 4.5-4.5V16Z" style="fill:currentColor;fill-opacity:1;stroke:none;color:#dedede"/></svg>
